X: 9925
T: Deuks Dang Ower My Daddy
R: jig
M: 6/8
K: Dmajor
|:f/e/|d2A FDD|EFE cBc|d2A F2E|FDD D2:|
A|dcd Bcd|efd cBA|dcd efg|fdd d2e/f/|
gfg Bcd|efd cBA|d2A F2E|FDD D2||

